usr/share/icons/biglinux-icons-material/scalable/apps/supertuxkart.svg

<svg width="64" height="64" viewBox="0 0 16.933 16.933" xmlns="http://www.w3.org/2000/svg"><circle cx="8.466" cy="8.46" r="7.144" fill="#b5bbc0" style="paint-order:stroke markers fill"/><circle cx="8.466" cy="8.46" r="6.35" fill="#fff" opacity=".15" style="paint-order:stroke markers fill"/><g transform="translate(-2.189 -2.012) scale(1.2308)" stroke-width=".215"><path d="m11.389 9.198-.491-.13a.78.78 0 0 0-.953.544l-.336 1.243a.77.77 0 0 0 .552.942l.49.13c.414.11.84-.133.952-.544l.335-1.243a.768.768 0 0 0-.549-.942" fill="#2e3436"/><path d="m11.052 8.098-.328-.094c-.276-.08-.559.097-.633.395l-.225.903c-.074.298.09.605.367.685l.327.095c.276.08.56-.097.634-.395l.224-.904c.074-.298-.09-.605-.366-.685M6.81 7.834l.344-.095c.29-.08.587.098.664.395l.235.903a.561.561 0 0 1-.383.685l-.344.095a.541.541 0 0 1-.664-.395l-.235-.903a.56.56 0 0 1 .384-.685" fill="#2e3436"/><path d="M9.697 5.08c-.76-.066-1.536.495-1.835 1.384a2.414 2.414 0 0 0-.095.378v.005c-.2.225-.364.494-.469.805-.374 1.109.113 2.274 1.084 2.601.972.328 2.06-.304 2.433-1.413.14-.412.163-.833.085-1.215.015-.04.03-.078.044-.119.342-1.016-.07-2.074-.921-2.362a1.37 1.37 0 0 0-.326-.065" fill="#121919"/><path d="M9.19 5.613a.644.644 0 0 0-.61.445c-.088.258-.044.522.097.693-.313.106-.603.32-.826.616.019.096.04.195.07.293.1.351.169.91-.12.623a1.377 1.377 0 0 1-.254-.342c-.317.923.048 1.884.817 2.15.77.268 1.653-.264 1.974-1.188.023-.066.039-.133.055-.199-.179.121-.353.257-.603.299-.523.088-.041-.411.345-.75.119-.104.242-.269.242-.269-.055-.314-.143-.686-.342-.9.285.056.504-.068.574-.295.077-.248-.063-.523-.375-.62a.646.646 0 0 0-.505.04c.014-.284-.124-.486-.365-.57a.463.463 0 0 0-.173-.026zm.354 1.084a.71.71 0 0 0 .033.07l-.055-.022-.018-.008c.013-.013.028-.025.04-.038z" fill="#ececec"/><path d="M9.556 6.482c-.016.08-.06.149-.116.178a.113.113 0 0 1-.153-.034.259.259 0 0 1-.028-.212c.027-.118.115-.2.196-.182.083.019.127.13.1.25M9.945 6.6a.262.262 0 0 1-.116.18.112.112 0 0 1-.152-.035c-.038-.051-.048-.132-.028-.212.026-.118.114-.2.197-.182.082.018.126.13.099.249" fill="#2e3436"/><path d="M8.88 6.772s.408-.085.646.017c.236.102.39.356.39.356s-.408.585-.763.412c-.356-.175-.271-.785-.271-.785" fill="#ffb30a"/><path d="m5.918 9.198.485-.13a.766.766 0 0 1 .938.544l.332 1.243a.77.77 0 0 1-.542.942l-.485.13a.765.765 0 0 1-.938-.544l-.332-1.243a.77.77 0 0 1 .542-.942" fill="#2e3436"/><path d="M7.996 9.969a.926.926 0 1 1-1.853 0 .926.926 0 0 1 1.853 0" fill="#ffb30a"/><path d="M8.79 7.72A1.058 1.058 0 0 0 7.73 8.778 1.058 1.058 0 0 0 8.79 9.836a1.058 1.058 0 0 0 1.058-1.058A1.058 1.058 0 0 0 8.79 7.72zm0 .264a.794.811 0 0 1 .793.812.794.811 0 0 1-.793.81.794.811 0 0 1-.794-.81.794.811 0 0 1 .794-.812zm0 .265a.53.53 0 0 0-.53.53.53.53 0 0 0 .53.528.53.53 0 0 0 .529-.529.53.53 0 0 0-.53-.529z" fill="#2e3436" style="paint-order:normal"/><path d="M10.906 9.969a.925.925 0 1 1-1.85.001.925.925 0 0 1 1.85-.001" fill="#ffb30a"/><path d="m10.509 8.508-.66.006-.209.363-.255-.255s-.16-.109-.655-.109c-.431 0-.797.071-.797.071l-.303.286-.163-.357h-.542c-.197 0-.252.056-.252.265h.595c.125 0 .242.128.27.166-.354.285-.865.878-.865 1.254 0 .541.104 1.32.104 1.32s.714.17 1.748.17c1.035 0 2.001-.235 2.001-.235s.116-.558.116-.875c0-.742-.398-1.22-.906-1.626.024-.039.09-.174.273-.174h.633s0-.264-.133-.27z" fill="#e25136"/><rect x="7.202" y="9.836" width="2.91" height="1.587" ry=".661" fill="#693d36" style="paint-order:normal"/></g></svg>

<?xml version="1.0" encoding="UTF-8" standalone="no"?>
<svg
   width="24"
   height="24"
   viewBox="0 0 6.349875 6.349875"
   version="1.1"
   id="svg70164"
   sodipodi:docname="supertuxkart_128.svg"
   xml:space="preserve"
   inkscape:version="1.2.2 (b0a8486541, 2022-12-01)"
   xmlns:inkscape="http://www.inkscape.org/namespaces/inkscape"
   xmlns:sodipodi="http://sodipodi.sourceforge.net/DTD/sodipodi-0.dtd"
   xmlns:xlink="http://www.w3.org/1999/xlink"
   xmlns="http://www.w3.org/2000/svg"
   xmlns:svg="http://www.w3.org/2000/svg"><defs
     id="defs70168"><linearGradient
       inkscape:collect="always"
       id="linearGradient71076"><stop
         style="stop-color:#f4f4f4;stop-opacity:1;"
         offset="0"
         id="stop71072" /><stop
         style="stop-color:#b5bbc0;stop-opacity:1;"
         offset="1"
         id="stop71074" /></linearGradient><radialGradient
       id="paint0_radial_1_27"
       cx="0"
       cy="0"
       r="1"
       gradientUnits="userSpaceOnUse"
       gradientTransform="matrix(0,22.000003,-22.000003,0,2.8832922,-3.5034343)"><stop
         stop-color="#9BDF6C"
         id="stop5989"
         offset="0"
         style="stop-color:#a4a4a4;stop-opacity:1;" /><stop
         offset="1"
         stop-color="#204705"
         id="stop5991"
         style="stop-color:#626262;stop-opacity:1;" /></radialGradient><radialGradient
       id="paint0_radial_1_284"
       cx="0"
       cy="0"
       r="1"
       gradientUnits="userSpaceOnUse"
       gradientTransform="matrix(-10.999959,21.999967,-21.999967,-10.999959,-24.402365,-4.1651738)"><stop
         stop-color="#9A9A9A"
         id="stop8367" /><stop
         offset="1"
         stop-color="#5D5D5D"
         id="stop8369" /></radialGradient><radialGradient
       fx="0"
       fy="0"
       cx="0"
       cy="0"
       r="1"
       gradientUnits="userSpaceOnUse"
       gradientTransform="matrix(0,16.500002,-16.500002,0,8.999998,0.749999)"
       spreadMethod="pad"
       id="radialGradient12763"><stop
         style="stop-opacity:1;stop-color:#a4a4a4"
         offset="0"
         id="stop12759" /><stop
         style="stop-opacity:1;stop-color:#626262"
         offset="1"
         id="stop12761" /></radialGradient><clipPath
       clipPathUnits="userSpaceOnUse"
       id="clipPath12773"><path
         d="M 0,0 H 19 V 19 H 0 Z"
         id="path12771" /></clipPath><clipPath
       clipPathUnits="userSpaceOnUse"
       id="clipPath12789"><path
         d="M 0,0 H 19 V 19 H 0 Z"
         id="path12787" /></clipPath><radialGradient
       fx="0"
       fy="0"
       cx="0"
       cy="0"
       r="1"
       gradientUnits="userSpaceOnUse"
       gradientTransform="matrix(0,16.500002,-16.500002,0,8.999998,0.749999)"
       spreadMethod="pad"
       id="radialGradient12763-3"><stop
         style="stop-opacity:1;stop-color:#a4a4a4"
         offset="0"
         id="stop12759-6" /><stop
         style="stop-opacity:1;stop-color:#626262"
         offset="1"
         id="stop12761-7" /></radialGradient><radialGradient
       fx="0"
       fy="0"
       cx="0"
       cy="0"
       r="1"
       gradientUnits="userSpaceOnUse"
       gradientTransform="matrix(0,16.500002,-16.500002,0,8.999659,0.749973)"
       spreadMethod="pad"
       id="radialGradient48543"><stop
         style="stop-opacity:1;stop-color:#a4a4a4"
         offset="0"
         id="stop48539" /><stop
         style="stop-opacity:1;stop-color:#626262"
         offset="1"
         id="stop48541" /></radialGradient><radialGradient
       id="paint0_radial_1_27-2"
       cx="0"
       cy="0"
       r="1"
       gradientUnits="userSpaceOnUse"
       gradientTransform="matrix(0,22.000003,-22.000003,0,11.999997,0.99999709)"><stop
         stop-color="#9BDF6C"
         id="stop5989-6"
         offset="0"
         style="stop-color:#dedede;stop-opacity:1;" /><stop
         offset="1"
         stop-color="#204705"
         id="stop5991-1"
         style="stop-color:#656565;stop-opacity:1;" /></radialGradient><radialGradient
       fx="0"
       fy="0"
       cx="0"
       cy="0"
       r="1"
       gradientUnits="userSpaceOnUse"
       gradientTransform="matrix(0,16.500002,-16.500002,0,8.999998,0.749998)"
       spreadMethod="pad"
       id="radialGradient73082"><stop
         style="stop-opacity:1;stop-color:#dedede"
         offset="0"
         id="stop73078" /><stop
         style="stop-opacity:1;stop-color:#656565"
         offset="1"
         id="stop73080" /></radialGradient><clipPath
       clipPathUnits="userSpaceOnUse"
       id="clipPath73092"><path
         d="M 0,0 H 19 V 19 H 0 Z"
         id="path73090" /></clipPath><clipPath
       clipPathUnits="userSpaceOnUse"
       id="clipPath73164"><path
         d="m 5.273,12.059 h 0.219 c 0.098,0 0.176,0.082 0.176,0.179 v 0.727 c 0,0.097 -0.078,0.176 -0.176,0.176 H 5.273 c -0.097,0 -0.179,-0.079 -0.179,-0.176 v -0.727 c 0,-0.097 0.082,-0.179 0.179,-0.179 z"
         id="path73162" /></clipPath><clipPath
       clipPathUnits="userSpaceOnUse"
       id="clipPath73172"><path
         d="m -97.539457,25.423071 h 11.345439 V 48.11395 h -11.345439 z"
         id="path73170" /></clipPath><linearGradient
       x1="-91.305519"
       y1="36.521664"
       x2="-91.305519"
       y2="26.407284"
       gradientUnits="userSpaceOnUse"
       spreadMethod="pad"
       id="linearGradient73178"><stop
         style="stop-opacity:1;stop-color:#ffffff"
         offset="0"
         id="stop73174" /><stop
         style="stop-opacity:0;stop-color:#ffffff"
         offset="1"
         id="stop73176" /></linearGradient><mask
       maskUnits="userSpaceOnUse"
       x="0"
       y="0"
       width="1"
       height="1"
       id="mask73180"><g
         id="g73186"><g
           clip-path="url(#clipPath73172)"
           id="g73184"><path
             d="m -97.539457,25.423071 h 11.345439 V 48.11395 h -11.345439 z"
             style="fill:url(#linearGradient73178);stroke:none"
             id="path73182" /></g></g></mask><linearGradient
       x1="-91.305519"
       y1="36.521664"
       x2="-91.305519"
       y2="26.407284"
       gradientUnits="userSpaceOnUse"
       spreadMethod="pad"
       id="linearGradient73194"><stop
         style="stop-opacity:1;stop-color:#fff355"
         offset="0"
         id="stop73190" /><stop
         style="stop-opacity:1;stop-color:#a49a00"
         offset="1"
         id="stop73192" /></linearGradient><clipPath
       clipPathUnits="userSpaceOnUse"
       id="clipPath73204"><path
         d="m 6.09,12.059 h 0.219 c 0.097,0 0.175,0.082 0.175,0.179 v 0.727 c 0,0.097 -0.078,0.176 -0.175,0.176 H 6.09 c -0.102,0 -0.18,-0.079 -0.18,-0.176 v -0.727 c 0,-0.097 0.078,-0.179 0.18,-0.179 z"
         id="path73202" /></clipPath><clipPath
       clipPathUnits="userSpaceOnUse"
       id="clipPath73212"><path
         d="m -106.7967,25.423071 h 22.690882 V 48.11395 H -106.7967 Z"
         id="path73210" /></clipPath><mask
       maskUnits="userSpaceOnUse"
       x="0"
       y="0"
       width="1"
       height="1"
       id="mask73220"><g
         id="g73226"><g
           clip-path="url(#clipPath73212)"
           id="g73224"><path
             d="m -106.7967,25.423071 h 22.690882 V 48.11395 H -106.7967 Z"
             style="fill:url(#linearGradient73178);stroke:none"
             id="path73222" /></g></g></mask><clipPath
       clipPathUnits="userSpaceOnUse"
       id="clipPath73244"><path
         d="m 6.906,12.059 h 0.219 c 0.098,0 0.176,0.082 0.176,0.179 v 0.727 c 0,0.097 -0.078,0.176 -0.176,0.176 H 6.906 c -0.101,0 -0.179,-0.079 -0.179,-0.176 v -0.727 c 0,-0.097 0.078,-0.179 0.179,-0.179 z"
         id="path73242" /></clipPath><clipPath
       clipPathUnits="userSpaceOnUse"
       id="clipPath73252"><path
         d="m -104.7085,25.423071 h 22.690881 V 48.11395 H -104.7085 Z"
         id="path73250" /></clipPath><mask
       maskUnits="userSpaceOnUse"
       x="0"
       y="0"
       width="1"
       height="1"
       id="mask73260"><g
         id="g73266"><g
           clip-path="url(#clipPath73252)"
           id="g73264"><path
             d="m -104.7085,25.423071 h 22.690881 V 48.11395 H -104.7085 Z"
             style="fill:url(#linearGradient73178);stroke:none"
             id="path73262" /></g></g></mask><clipPath
       clipPathUnits="userSpaceOnUse"
       id="clipPath73284"><path
         d="m 7.719,12.059 h 0.222 c 0.098,0 0.176,0.082 0.176,0.179 v 0.727 c 0,0.097 -0.078,0.176 -0.176,0.176 H 7.719 c -0.098,0 -0.176,-0.079 -0.176,-0.176 v -0.727 c 0,-0.097 0.078,-0.179 0.176,-0.179 z"
         id="path73282" /></clipPath><clipPath
       clipPathUnits="userSpaceOnUse"
       id="clipPath73292"><path
         d="m -102.6203,25.423071 h 22.690874 V 48.11395 H -102.6203 Z"
         id="path73290" /></clipPath><mask
       maskUnits="userSpaceOnUse"
       x="0"
       y="0"
       width="1"
       height="1"
       id="mask73300"><g
         id="g73306"><g
           clip-path="url(#clipPath73292)"
           id="g73304"><path
             d="m -102.6203,25.423071 h 22.690874 V 48.11395 H -102.6203 Z"
             style="fill:url(#linearGradient73178);stroke:none"
             id="path73302" /></g></g></mask><clipPath
       clipPathUnits="userSpaceOnUse"
       id="clipPath73324"><path
         d="m 8.492,12.059 c 0.07,0 0.129,0.058 0.129,0.132 v 0.817 c 0,0.074 -0.059,0.133 -0.129,0.133 -0.074,0 -0.133,-0.059 -0.133,-0.133 v -0.817 c 0,-0.074 0.059,-0.132 0.133,-0.132 z"
         id="path73322" /></clipPath><clipPath
       clipPathUnits="userSpaceOnUse"
       id="clipPath73332"><path
         d="m -105.31784,25.423071 h 24.693021 V 48.11395 h -24.693021 z"
         id="path73330" /></clipPath><mask
       maskUnits="userSpaceOnUse"
       x="0"
       y="0"
       width="1"
       height="1"
       id="mask73340"><g
         id="g73346"><g
           clip-path="url(#clipPath73332)"
           id="g73344"><path
             d="m -105.31784,25.423071 h 24.693021 V 48.11395 h -24.693021 z"
             style="fill:url(#linearGradient73178);stroke:none"
             id="path73342" /></g></g></mask><linearGradient
       inkscape:collect="always"
       xlink:href="#linearGradient73194"
       id="linearGradient73506"
       gradientUnits="userSpaceOnUse"
       x1="-91.305519"
       y1="36.521664"
       x2="-91.305519"
       y2="26.407284"
       spreadMethod="pad" /><linearGradient
       inkscape:collect="always"
       xlink:href="#linearGradient73194"
       id="linearGradient70588"
       gradientUnits="userSpaceOnUse"
       x1="-91.305519"
       y1="36.521664"
       x2="-91.305519"
       y2="26.407284"
       spreadMethod="pad" /><linearGradient
       inkscape:collect="always"
       xlink:href="#linearGradient73194"
       id="linearGradient70590"
       gradientUnits="userSpaceOnUse"
       x1="-91.305519"
       y1="36.521664"
       x2="-91.305519"
       y2="26.407284"
       spreadMethod="pad" /><linearGradient
       inkscape:collect="always"
       xlink:href="#linearGradient73194"
       id="linearGradient70592"
       gradientUnits="userSpaceOnUse"
       x1="-91.305519"
       y1="36.521664"
       x2="-91.305519"
       y2="26.407284"
       spreadMethod="pad" /><linearGradient
       inkscape:collect="always"
       xlink:href="#linearGradient73194"
       id="linearGradient70594"
       gradientUnits="userSpaceOnUse"
       x1="-91.305519"
       y1="36.521664"
       x2="-91.305519"
       y2="26.407284"
       spreadMethod="pad" /><radialGradient
       inkscape:collect="always"
       xlink:href="#linearGradient71076"
       id="radialGradient71078"
       cx="9.0003395"
       cy="0.96229053"
       fx="9.0003395"
       fy="0.96229053"
       r="8.2498649"
       gradientTransform="matrix(1.1646682,0,0,1.1646682,-1.48207,-0.15845868)"
       gradientUnits="userSpaceOnUse" /></defs><sodipodi:namedview
     id="namedview70166"
     pagecolor="#ffffff"
     bordercolor="#000000"
     borderopacity="0.25"
     inkscape:showpageshadow="2"
     inkscape:pageopacity="0.0"
     inkscape:pagecheckerboard="0"
     inkscape:deskcolor="#d1d1d1"
     showgrid="false"
     inkscape:zoom="3.3125"
     inkscape:cx="-97.811321"
     inkscape:cy="63.849057"
     inkscape:window-width="2560"
     inkscape:window-height="1000"
     inkscape:window-x="1680"
     inkscape:window-y="0"
     inkscape:window-maximized="1"
     inkscape:current-layer="svg70164" /><g
     id="g73068"
     transform="matrix(0.35277082,0,0,0.35277082,-1.1961624e-4,-9.2306512e-6)"
     style="fill:url(#radialGradient71078);fill-opacity:1"><g
       id="g73070"
       style="fill-opacity:1;fill:url(#radialGradient71078)"><g
         id="g73076"
         style="fill-opacity:1;fill:url(#radialGradient71078)"><path
           d="m 7.195,0.836 c 0.09,0 0.176,-0.012 0.258,-0.035 1.078,-0.071 2.156,-0.067 3.231,0.008 0.976,0.078 1.921,0.289 2.836,0.636 1.519,0.625 2.558,1.711 3.121,3.254 0.316,0.93 0.507,1.887 0.566,2.867 0.078,1.235 0.051,2.465 -0.086,3.696 -0.105,0.863 -0.328,1.691 -0.672,2.488 -0.637,1.383 -1.672,2.336 -3.101,2.859 C 12.191,17 11,17.207 9.773,17.227 8.398,17.301 7.035,17.195 5.684,16.918 3.203,16.367 1.668,14.852 1.09,12.375 0.844,11.262 0.73,10.133 0.754,8.992 0.727,7.777 0.855,6.582 1.141,5.402 1.75,3.09 3.219,1.656 5.547,1.102 6.09,0.969 6.641,0.879 7.195,0.836 Z"
           style="fill:url(#radialGradient71078);fill-rule:evenodd;stroke:none;fill-opacity:1"
           id="path73084" /></g></g></g><g
     id="g73158"
     transform="matrix(0.35277082,0,0,0.35277082,-0.36464232,3.9067277)"
     style="fill:none"><g
       id="g73160"
       clip-path="url(#clipPath73164)"><g
         id="g73166"
         transform="matrix(0.0881411,0,0,0.0881411,13.597239,9.759182)"><g
           id="g73168" /><g
           id="g73188"
           mask="url(#mask73180)"><path
             d="m 5.273,12.059 h 0.219 c 0.098,0 0.176,0.082 0.176,0.179 v 0.727 c 0,0.097 -0.078,0.176 -0.176,0.176 H 5.273 c -0.097,0 -0.179,-0.079 -0.179,-0.176 v -0.727 c 0,-0.097 0.082,-0.179 0.179,-0.179 z"
             style="fill:url(#linearGradient70588);stroke:none"
             id="path73196" /></g></g></g></g><g
     id="g73198"
     transform="matrix(0.35277082,0,0,0.35277082,-0.36464232,3.9067277)"
     style="fill:none"><g
       id="g73200"
       clip-path="url(#clipPath73204)"><g
         id="g73206"
         transform="matrix(0.0881411,0,0,0.0881411,14.413183,9.759182)"><g
           id="g73208" /><g
           id="g73228"
           mask="url(#mask73220)"><path
             d="m 6.09,12.059 h 0.219 c 0.097,0 0.175,0.082 0.175,0.179 v 0.727 c 0,0.097 -0.078,0.176 -0.175,0.176 H 6.09 c -0.102,0 -0.18,-0.079 -0.18,-0.176 v -0.727 c 0,-0.097 0.078,-0.179 0.18,-0.179 z"
             style="fill:url(#linearGradient70590);stroke:none"
             id="path73236" /></g></g></g></g><g
     id="g73238"
     transform="matrix(0.35277082,0,0,0.35277082,-0.36464232,3.9067277)"
     style="fill:none"><g
       id="g73240"
       clip-path="url(#clipPath73244)"><g
         id="g73246"
         transform="matrix(0.0881411,0,0,0.0881411,15.229127,9.759182)"><g
           id="g73248" /><g
           id="g73268"
           mask="url(#mask73260)"><path
             d="m 6.906,12.059 h 0.219 c 0.098,0 0.176,0.082 0.176,0.179 v 0.727 c 0,0.097 -0.078,0.176 -0.176,0.176 H 6.906 c -0.101,0 -0.179,-0.079 -0.179,-0.176 v -0.727 c 0,-0.097 0.078,-0.179 0.179,-0.179 z"
             style="fill:url(#linearGradient70592);stroke:none"
             id="path73276" /></g></g></g></g><g
     id="g73278"
     transform="matrix(0.35277082,0,0,0.35277082,-0.36464232,3.9067277)"
     style="fill:none"><g
       id="g73280"
       clip-path="url(#clipPath73284)"><g
         id="g73286"
         transform="matrix(0.0881411,0,0,0.0881411,16.045071,9.759182)"><g
           id="g73288" /><g
           id="g73308"
           mask="url(#mask73300)"><path
             d="m 7.719,12.059 h 0.222 c 0.098,0 0.176,0.082 0.176,0.179 v 0.727 c 0,0.097 -0.078,0.176 -0.176,0.176 H 7.719 c -0.098,0 -0.176,-0.079 -0.176,-0.176 v -0.727 c 0,-0.097 0.078,-0.179 0.176,-0.179 z"
             style="fill:url(#linearGradient70594);stroke:none"
             id="path73316" /></g></g></g></g><g
     id="g73318"
     transform="matrix(0.35277082,0,0,0.35277082,-0.36464232,3.9067277)"
     style="fill:none"><g
       id="g73320"
       clip-path="url(#clipPath73324)"><g
         id="g73326"
         transform="matrix(0.0404973,0,0,0.0881411,12.265086,9.759182)"><g
           id="g73328" /><g
           id="g73348"
           mask="url(#mask73340)"><path
             d="m 8.492,12.059 c 0.07,0 0.129,0.058 0.129,0.132 v 0.817 c 0,0.074 -0.059,0.133 -0.129,0.133 -0.074,0 -0.133,-0.059 -0.133,-0.133 v -0.817 c 0,-0.074 0.059,-0.132 0.133,-0.132 z"
             style="fill:url(#linearGradient73506);stroke:none"
             id="path73356" /></g></g></g></g><g
     transform="matrix(0.57695005,0,0,0.57695005,-1.8197149,-1.7372728)"
     stroke-width="0.215"
     id="g70684"><path
       d="M 11.389,9.198 10.898,9.068 A 0.78,0.78 0 0 0 9.945,9.612 l -0.336,1.243 a 0.77,0.77 0 0 0 0.552,0.942 l 0.49,0.13 c 0.414,0.11 0.84,-0.133 0.952,-0.544 L 11.938,10.14 A 0.768,0.768 0 0 0 11.389,9.198"
       fill="#2e3436"
       id="path70660" /><path
       d="M 11.052,8.098 10.724,8.004 C 10.448,7.924 10.165,8.101 10.091,8.399 L 9.866,9.302 C 9.792,9.6 9.956,9.907 10.233,9.987 l 0.327,0.095 c 0.276,0.08 0.56,-0.097 0.634,-0.395 L 11.418,8.783 C 11.492,8.485 11.328,8.178 11.052,8.098 M 6.81,7.834 7.154,7.739 c 0.29,-0.08 0.587,0.098 0.664,0.395 L 8.053,9.037 A 0.561,0.561 0 0 1 7.67,9.722 L 7.326,9.817 A 0.541,0.541 0 0 1 6.662,9.422 L 6.427,8.519 A 0.56,0.56 0 0 1 6.811,7.834"
       fill="#2e3436"
       id="path70662" /><path
       d="M 9.697,5.08 C 8.937,5.014 8.161,5.575 7.862,6.464 A 2.414,2.414 0 0 0 7.767,6.842 V 6.847 C 7.567,7.072 7.403,7.341 7.298,7.652 6.924,8.761 7.411,9.926 8.382,10.253 9.354,10.581 10.442,9.949 10.815,8.84 10.955,8.428 10.978,8.007 10.9,7.625 10.915,7.585 10.93,7.547 10.944,7.506 11.286,6.49 10.874,5.432 10.023,5.144 A 1.37,1.37 0 0 0 9.697,5.079"
       fill="#121919"
       id="path70664" /><path
       d="M 9.19,5.613 A 0.644,0.644 0 0 0 8.58,6.058 C 8.492,6.316 8.536,6.58 8.677,6.751 8.364,6.857 8.074,7.071 7.851,7.367 7.87,7.463 7.891,7.562 7.921,7.66 8.021,8.011 8.09,8.57 7.801,8.283 A 1.377,1.377 0 0 1 7.547,7.941 C 7.23,8.864 7.595,9.825 8.364,10.091 9.134,10.359 10.017,9.827 10.338,8.903 10.361,8.837 10.377,8.77 10.393,8.704 10.214,8.825 10.04,8.961 9.79,9.003 9.267,9.091 9.749,8.592 10.135,8.253 10.254,8.149 10.377,7.984 10.377,7.984 10.322,7.67 10.234,7.298 10.035,7.084 10.32,7.14 10.539,7.016 10.609,6.789 10.686,6.541 10.546,6.266 10.234,6.169 A 0.646,0.646 0 0 0 9.729,6.209 C 9.743,5.925 9.605,5.723 9.364,5.639 A 0.463,0.463 0 0 0 9.191,5.613 Z m 0.354,1.084 a 0.71,0.71 0 0 0 0.033,0.07 L 9.522,6.745 9.504,6.737 C 9.517,6.724 9.532,6.712 9.544,6.699 Z"
       fill="#ececec"
       id="path70666" /><path
       d="M 9.556,6.482 C 9.54,6.562 9.496,6.631 9.44,6.66 A 0.113,0.113 0 0 1 9.287,6.626 0.259,0.259 0 0 1 9.259,6.414 c 0.027,-0.118 0.115,-0.2 0.196,-0.182 0.083,0.019 0.127,0.13 0.1,0.25 M 9.945,6.6 A 0.262,0.262 0 0 1 9.829,6.78 0.112,0.112 0 0 1 9.677,6.745 C 9.639,6.694 9.629,6.613 9.649,6.533 9.675,6.415 9.763,6.333 9.846,6.351 9.928,6.369 9.972,6.481 9.945,6.6"
       fill="#2e3436"
       id="path70668" /><path
       d="m 8.88,6.772 c 0,0 0.408,-0.085 0.646,0.017 0.236,0.102 0.39,0.356 0.39,0.356 0,0 -0.408,0.585 -0.763,0.412 C 8.797,7.382 8.882,6.772 8.882,6.772"
       fill="#ffb30a"
       id="path70670" /><path
       d="m 5.918,9.198 0.485,-0.13 a 0.766,0.766 0 0 1 0.938,0.544 l 0.332,1.243 a 0.77,0.77 0 0 1 -0.542,0.942 l -0.485,0.13 A 0.765,0.765 0 0 1 5.708,11.383 L 5.376,10.14 A 0.77,0.77 0 0 1 5.918,9.198"
       fill="#2e3436"
       id="path70672" /><path
       d="m 7.996,9.969 a 0.9265,0.9265 0 1 1 -1.853,0 0.9265,0.9265 0 0 1 1.853,0"
       fill="#ffb30a"
       id="path70674" /><path
       d="M 8.79,7.72 A 1.058,1.058 0 0 0 7.73,8.778 1.058,1.058 0 0 0 8.79,9.836 1.058,1.058 0 0 0 9.848,8.778 1.058,1.058 0 0 0 8.79,7.72 Z m 0,0.264 A 0.794,0.811 0 0 1 9.583,8.796 0.794,0.811 0 0 1 8.79,9.606 0.794,0.811 0 0 1 7.996,8.796 0.794,0.811 0 0 1 8.79,7.984 Z m 0,0.265 A 0.53,0.53 0 0 0 8.26,8.779 0.53,0.53 0 0 0 8.79,9.307 0.53,0.53 0 0 0 9.319,8.778 0.53,0.53 0 0 0 8.789,8.249 Z"
       fill="#2e3436"
       style="paint-order:normal"
       id="path70676" /><path
       d="M 10.906,9.969 A 0.92500014,0.92500014 0 1 1 9.056,9.97 0.92500014,0.92500014 0 0 1 10.906,9.969"
       fill="#ffb30a"
       id="path70678" /><path
       d="M 10.509,8.508 9.849,8.514 9.64,8.877 9.385,8.622 c 0,0 -0.16,-0.109 -0.655,-0.109 -0.431,0 -0.797,0.071 -0.797,0.071 L 7.63,8.87 7.467,8.513 H 6.925 c -0.197,0 -0.252,0.056 -0.252,0.265 h 0.595 c 0.125,0 0.242,0.128 0.27,0.166 -0.354,0.285 -0.865,0.878 -0.865,1.254 0,0.541 0.104,1.32 0.104,1.32 0,0 0.714,0.17 1.748,0.17 1.035,0 2.001,-0.235 2.001,-0.235 0,0 0.116,-0.558 0.116,-0.875 0,-0.742 -0.398,-1.22 -0.906,-1.626 0.024,-0.039 0.09,-0.174 0.273,-0.174 h 0.633 c 0,0 0,-0.264 -0.133,-0.27 z"
       fill="#e25136"
       id="path70680" /><rect
       x="7.2020001"
       y="9.8360004"
       width="2.9100001"
       height="1.587"
       ry="0.66100001"
       fill="#693d36"
       style="paint-order:normal"
       id="rect70682" /></g></svg>
